src/lib/packages/icons/src/assets/line/sliders-vertical.svg

<svg width="24" height="24" viewBox="0 0 24 24" fill="none" xmlns="http://www.w3.org/2000/svg">
<path d="M7 15.25H3C2.586 15.25 2.25 15.586 2.25 16C2.25 16.414 2.586 16.75 3 16.75H4.25V21C4.25 21.414 4.586 21.75 5 21.75C5.414 21.75 5.75 21.414 5.75 21V16.75H7C7.414 16.75 7.75 16.414 7.75 16C7.75 15.586 7.414 15.25 7 15.25ZM5 12.75C5.414 12.75 5.75 12.414 5.75 12V3C5.75 2.586 5.414 2.25 5 2.25C4.586 2.25 4.25 2.586 4.25 3V12C4.25 12.414 4.586 12.75 5 12.75ZM12 11.25C11.586 11.25 11.25 11.586 11.25 12V21C11.25 21.414 11.586 21.75 12 21.75C12.414 21.75 12.75 21.414 12.75 21V12C12.75 11.586 12.414 11.25 12 11.25ZM14 7.25H12.75V3C12.75 2.586 12.414 2.25 12 2.25C11.586 2.25 11.25 2.586 11.25 3V7.25H10C9.586 7.25 9.25 7.586 9.25 8C9.25 8.414 9.586 8.75 10 8.75H14C14.414 8.75 14.75 8.414 14.75 8C14.75 7.586 14.414 7.25 14 7.25ZM21 15.25H17C16.586 15.25 16.25 15.586 16.25 16C16.25 16.414 16.586 16.75 17 16.75H18.25V21C18.25 21.414 18.586 21.75 19 21.75C19.414 21.75 19.75 21.414 19.75 21V16.75H21C21.414 16.75 21.75 16.414 21.75 16C21.75 15.586 21.414 15.25 21 15.25ZM19 12.75C19.414 12.75 19.75 12.414 19.75 12V3C19.75 2.586 19.414 2.25 19 2.25C18.586 2.25 18.25 2.586 18.25 3V12C18.25 12.414 18.586 12.75 19 12.75Z" fill="currentColor"/>
</svg>

<svg xmlns="http://www.w3.org/2000/svg" width="24" height="24" fill="none"><path fill="currentColor" d="M7 15.25H3a.75.75 0 0 0 0 1.5h1.25V21a.75.75 0 0 0 1.5 0v-4.25H7a.75.75 0 0 0 0-1.5Zm-2-2.5a.75.75 0 0 0 .75-.75V3a.75.75 0 0 0-1.5 0v9c0 .414.336.75.75.75Zm7-1.5a.75.75 0 0 0-.75.75v9a.75.75 0 0 0 1.5 0v-9a.75.75 0 0 0-.75-.75Zm2-4h-1.25V3a.75.75 0 0 0-1.5 0v4.25H10a.75.75 0 0 0 0 1.5h4a.75.75 0 0 0 0-1.5Zm7 8h-4a.75.75 0 0 0 0 1.5h1.25V21a.75.75 0 0 0 1.5 0v-4.25H21a.75.75 0 0 0 0-1.5Zm-2-2.5a.75.75 0 0 0 .75-.75V3a.75.75 0 0 0-1.5 0v9c0 .414.336.75.75.75Z"/></svg>
